X: 56
T: No_46_Lightning_Dance_Song.krn
N: Derived from No_46_Lightning_Dance_Song.krn
%%abc-version 2.0
%%abcx-abcm2ps-target-version 5.9.1 (29 Sep 2008)
%%abc-creator hum2abc beta
%%abcx-conversion-date 2019/03/15 08:36:13
%%humdrum-veritas 3531636369
%%humdrum-veritas-data 3906157532
%%linebreak <none>
%%barnumbers 0
L: 1/16
M: 3/4
K: G clef=bass
[K:clef=bass][M:3/4]z8z2 z D | 
D8B,2B,B, ||  
[M:2/4]D2 z D D^CB,D ||  
[M:3/4]D4(5:4:6B,G,A,G,/ z/ z B,G,B,3/D/ ||  
[M:2/4]^C8 | 
^CB,G, z CB,G, z/ C/ | 
B,2B,G, ^C2CC | 
G,4z4 ||  
[M:2/4]z2 z E EDCE | 
E8 [I:setbarnb 11]||  
[M:3/4](3:2:6(G/F)(FE)CC E2 z E EDCE | 
E4CG,/G,/A,G,/ z/ CG,B,3/D/ | 
C8(5:4:5EDCB,A, ||  
[M:2/4]C2 z D (3C2A,2G,2 | 
C2CC CA,G,2 | 
E,E,3E,4 ||  
[M:3/4]C3C C2CC CA,G,2 ||  
[M:2/4]E,4E,3G, ||  
[M:3/4]E,4E,2 z E EDCE :|]  
[M:2/4]E,4E,3G, | 
E,4E,2 z2 |]  



